svg/invoice_text_clock_outline.svg

<svg xmlns="http://www.w3.org/2000/svg" viewBox="0 0 24 24"><path d="M17 9H7V7h10zm-2 4v3.69l3.19 1.84.75-1.3-2.44-1.41V13zm-6 9 1.87-1.24A6.95 6.95 0 0 0 16 23c3.87 0 7-3.13 7-7 0-1.91-.76-3.64-2-4.9V3H3v19l3-2zm0-2.4-3-2-1 .66V5h14v4.67c-.91-.43-1.93-.67-3-.67-1.91 0-3.64.76-4.9 2H7v2h2.67c-.43.91-.67 1.93-.67 3 0 1.12.26 2.17.73 3.11zm7 1.4c-2.76 0-5-2.24-5-5s2.24-5 5-5 5 2.24 5 5-2.24 5-5 5"/></svg>

<svg xmlns="http://www.w3.org/2000/svg" id="mdi-invoice-text-clock-outline" viewBox="0 0 24 24"><path d="M17 9H7V7H17V9M15 13V16.69L18.19 18.53L18.94 17.23L16.5 15.82V13H15M9 22L10.87 20.76C12.14 22.14 13.97 23 16 23C19.87 23 23 19.87 23 16C23 14.09 22.24 12.36 21 11.1V3H3V22L6 20L9 22M9 19.6L6 17.6L5 18.26V5H19V9.67C18.09 9.24 17.07 9 16 9C14.09 9 12.36 9.76 11.1 11H7V13H9.67C9.24 13.91 9 14.93 9 16C9 17.12 9.26 18.17 9.73 19.11L9 19.6M16 21C13.24 21 11 18.76 11 16C11 13.24 13.24 11 16 11C18.76 11 21 13.24 21 16C21 18.76 18.76 21 16 21Z" /></svg>
